public/arrow.svg

<svg width="30" height="25" viewBox="0 0 30 25" fill="none" xmlns="http://www.w3.org/2000/svg">
<path d="M12.0363 0.993211C11.3858 0.910773 10.7547 1.31358 10.5699 1.96362C10.3659 2.68077 10.7819 3.42747 11.499 3.63144L11.4991 3.63144L24.4301 7.31073L24.7794 7.41013L24.4617 7.5862L1.40362 20.3662L1.24084 20.4713C0.711092 20.8695 0.542494 21.6077 0.872957 22.2038C1.23442 22.8559 2.05608 23.0915 2.70819 22.7301L25.7672 9.9496L26.0848 9.77358L25.9841 10.1224L22.2559 23.0294L22.2123 23.236C22.1271 23.8861 22.5273 24.5188 23.1765 24.7065C23.8928 24.9134 24.6412 24.5006 24.8482 23.7843L29.5892 7.37896L29.5918 7.36996L29.5925 7.36823C29.6077 7.31385 29.6195 7.25853 29.6278 7.20261C29.6279 7.20238 29.6279 7.20215 29.6279 7.20192L29.6306 7.18249C29.634 7.15754 29.6366 7.13275 29.6384 7.10961L29.6384 7.1094C29.641 7.07637 29.6424 7.04303 29.6426 7.00841C29.6427 6.98731 29.6423 6.96654 29.6414 6.94736L29.6413 6.94666C29.6396 6.90471 29.6358 6.8626 29.6299 6.81928C29.6269 6.7977 29.6234 6.77649 29.6198 6.75731L29.6197 6.75677C29.6122 6.71711 29.603 6.67747 29.5916 6.637C29.586 6.61753 29.5802 6.59856 29.5741 6.5807L29.5739 6.57994C29.5613 6.54221 29.547 6.50474 29.5308 6.46766L29.4714 6.34765L12.0363 0.993211ZM12.0363 0.993211L12.243 1.03594L28.6616 5.70566C28.7556 5.7324 28.8443 5.76839 28.927 5.81232C28.9533 5.82734 28.9781 5.84163 29.0021 5.85644L29.0021 5.8565L29.0061 5.85879C29.0247 5.8695 29.0438 5.88191 29.0639 5.89594C29.0942 5.91794 29.1238 5.94043 29.152 5.96368L29.1541 5.96541C29.175 5.982 29.1945 5.99916 29.2142 6.01759C29.2391 6.04155 29.2644 6.06707 29.2883 6.09331L29.2898 6.09491C29.3059 6.11198 29.3208 6.12918 29.3357 6.14736C29.3584 6.17564 29.3806 6.20508 29.4014 6.23527L29.4026 6.23686C29.4179 6.25841 29.4324 6.28069 29.4465 6.30398L12.0363 0.993211Z" fill="#F5F5F5" stroke="#F1F5F8" stroke-width="0.3"/>
</svg>

<svg width="30" height="25" fill="none" xmlns="http://www.w3.org/2000/svg"><path d="M12.036.993a1.35 1.35 0 0 0-.537 2.638l12.931 3.68.35.1-.318.175-23.058 12.78-.163.105a1.35 1.35 0 0 0 1.467 2.26L25.768 9.95l.317-.176-.1.348-3.73 12.907-.043.207a1.35 1.35 0 0 0 2.636.548L29.59 7.38l.003-.009v-.002c.016-.054.027-.11.036-.165v-.001l.003-.02a1.382 1.382 0 0 0 .01-.235 1.343 1.343 0 0 0-.021-.19 1.397 1.397 0 0 0-.046-.176V6.58a1.342 1.342 0 0 0-.043-.112l-.06-.12L12.036.993Zm0 0 .207.043 16.419 4.67a1.356 1.356 0 0 1 .34.15l.004.003c.019.01.038.023.058.037.03.022.06.044.088.068l.002.001a.97.97 0 0 1 .134.128l.002.002a.991.991 0 0 1 .111.14l.002.002c.015.021.03.044.044.067L12.037.994Z" fill="#F5F5F5" stroke="#F1F5F8" stroke-width=".3"/></svg>
